src/icons/zip.svg

<svg viewBox="0 0 24 24" xmlns="http://www.w3.org/2000/svg">
  <path
    d="M14 17H12V15H10V13H12V15H14M14 9H12V11H14V13H12V11H10V9H12V7H10V5H12V7H14M19 3H5C3.89 3 3 3.89 3 5V19C3 19.5304 3.21071 20.0391 3.58579 20.4142C3.96086 20.7893 4.46957 21 5 21H19C19.5304 21 20.0391 20.7893 20.4142 20.4142C20.7893 20.0391 21 19.5304 21 19V5C21 4.46957 20.7893 3.96086 20.4142 3.58579C20.0391 3.21071 19.5304 3 19 3Z"
    fill="#AFB42B"
  />
</svg>

<svg viewBox="0 0 24 24" xmlns="http://www.w3.org/2000/svg">
  <path
    d="M14 17h-2v-2h-2v-2h2v2h2m0-6h-2v2h2v2h-2v-2h-2V9h2V7h-2V5h2v2h2m5-4H5c-1.11 0-2 .89-2 2v14a2 2 0 0 0 2 2h14a2 2 0 0 0 2-2V5a2 2 0 0 0-2-2z"
    fill="#afb42b"
  />
</svg>
